src/images_karasa_jaga_svg/cmd/32/smallestheight.svg

<svg height="32" width="32" xmlns="http://www.w3.org/2000/svg" xmlns:xlink="http://www.w3.org/1999/xlink"><linearGradient id="a" gradientTransform="matrix(0 .129048 -.07807154 0 146.90212 -7.875381)" gradientUnits="userSpaceOnUse" x1="399.77466" x2="399.77466" y1="1164.6696" y2="549.06134"><stop offset="0" stop-color="#b4b4b6"/><stop offset=".5" stop-color="#9c9ca1"/><stop offset="1" stop-color="#cdcdd1"/></linearGradient><linearGradient id="b" gradientTransform="matrix(1.1666667 0 0 .4444445 -10.666665 35.555557)" gradientUnits="userSpaceOnUse" x1="105.14285" x2="9.142856" y1="153.99998" y2="-8.000002"><stop offset="0" stop-color="#fff"/><stop offset=".42597079" stop-color="#fff"/><stop offset=".5892781" stop-color="#f1f1f1"/><stop offset=".80219781" stop-color="#eaeaea"/><stop offset="1" stop-color="#dfdfdf"/></linearGradient><linearGradient id="c" gradientTransform="matrix(-1 0 0 1 126.44922 0)" gradientUnits="userSpaceOnUse" x1="77.206215" x2="55.689137" y1="41.569321" y2="63.086399"><stop offset="0" stop-color="#fff"/><stop offset="1" stop-color="#fff" stop-opacity="0"/></linearGradient><linearGradient id="d" gradientTransform="matrix(-.9999999 0 0 1.75 190 72.75)" gradientUnits="userSpaceOnUse" x1="100.02859" x2="38.063507" xlink:href="#e" y1="20.118034" y2="20.118034"/><linearGradient id="e"><stop offset="0" stop-color="#0968ef"/><stop offset="1" stop-color="#aecffc"/></linearGradient><linearGradient id="f" gradientTransform="matrix(.9999999 0 0 1.75 -61.999999 72.75)" gradientUnits="userSpaceOnUse" x1="100.02859" x2="38.063507" xlink:href="#e" y1="20.118034" y2="20.118034"/><g transform="scale(.25)"><path d="m100 46.59375c0-1.582857-1.247097-2.84375-2.78125-2.84375l-34.4375.25c-1.534154 0-2.78125 1.260893-2.78125 2.84375v34.3125c0 1.58286 1.247093 2.84375 2.78125 2.84375l34.4375.05c1.534154 0 2.78125-1.26089 2.78125-2.84375 0-38.204167 0 3.591667 0-34.6125z" fill="url(#a)"/><g fill-rule="evenodd" transform="matrix(0 1 -1 0 144 0)"><path d="m49.5 48c-.831 0-1.5.63728-1.5 1.4375v29.125c0 .800222.669 1.4375 1.5 1.4375h29c.831 0 1.5-.63728 1.5-1.4375v-29.125c0-.800222-.669-1.4375-1.5-1.4375-43.940179 0 14.940179 0-29 0z" fill="url(#b)"/><path d="m65.20337 48c4.800421 5.162207 7.673201 25.805092 10.79663 32h-16c-.769637-5.981009-8.463204-26.718891-10.90625-32h8.945313z" fill="url(#c)"/><path d="m4.000001 107.75h42.999999l-3 5.25 14-7-14-7 3 5.25h-42.999999z" fill="url(#f)"/><path d="m124 107.75h-40.999999l3 5.25-14-7 14-7-3 5.25h40.999999z" fill="url(#d)"/></g></g></svg>

<?xml version="1.0" encoding="UTF-8" standalone="no"?>
<!-- Created with Inkscape (http://www.inkscape.org/) -->

<svg
   xmlns:dc="http://purl.org/dc/elements/1.1/"
   xmlns:cc="http://creativecommons.org/ns#"
   xmlns:rdf="http://www.w3.org/1999/02/22-rdf-syntax-ns#"
   xmlns:svg="http://www.w3.org/2000/svg"
   xmlns="http://www.w3.org/2000/svg"
   xmlns:xlink="http://www.w3.org/1999/xlink"
   xmlns:sodipodi="http://sodipodi.sourceforge.net/DTD/sodipodi-0.dtd"
   xmlns:inkscape="http://www.inkscape.org/namespaces/inkscape"
   width="128"
   height="128"
   id="svg3408"
   sodipodi:version="0.32"
   inkscape:version="0.92.2 (unknown)"
   version="1.0"
   sodipodi:docname="smallestheight.svg"
   inkscape:output_extension="org.inkscape.output.svgz.inkscape"
   inkscape:export-filename="/home/rizmut/Dokumen/Rizmut/Github/libreoffice-style-karasa-jaga/build/images_karasa_Jaga/cmd/32/smallestheight.png"
   inkscape:export-xdpi="24"
   inkscape:export-ydpi="24">
  <defs
     id="defs3410">
    <inkscape:perspective
       sodipodi:type="inkscape:persp3d"
       inkscape:vp_x="0 : 64 : 1"
       inkscape:vp_y="0 : 1000 : 0"
       inkscape:vp_z="128 : 64 : 1"
       inkscape:persp3d-origin="64 : 42.666667 : 1"
       id="perspective27" />
    <linearGradient
       inkscape:collect="always"
       id="linearGradient3310">
      <stop
         style="stop-color:#ffffff;stop-opacity:1;"
         offset="0"
         id="stop3312" />
      <stop
         style="stop-color:#ffffff;stop-opacity:0;"
         offset="1"
         id="stop3314" />
    </linearGradient>
    <linearGradient
       id="linearGradient3369">
      <stop
         style="stop-color:#ffffff;stop-opacity:1;"
         offset="0"
         id="stop3372" />
      <stop
         id="stop3374"
         offset="0.42597079"
         style="stop-color:#ffffff;stop-opacity:1;" />
      <stop
         id="stop3376"
         offset="0.5892781"
         style="stop-color:#f1f1f1;stop-opacity:1;" />
      <stop
         style="stop-color:#eaeaea;stop-opacity:1;"
         offset="0.80219781"
         id="stop3378" />
      <stop
         style="stop-color:#dfdfdf;stop-opacity:1;"
         offset="1"
         id="stop3384" />
    </linearGradient>
    <linearGradient
       id="linearGradient7422">
      <stop
         id="stop7424"
         offset="0"
         style="stop-color:#b4b4b6;stop-opacity:1;" />
      <stop
         style="stop-color:#9c9ca1;stop-opacity:1;"
         offset="0.5"
         id="stop5348" />
      <stop
         style="stop-color:#cdcdd1;stop-opacity:1;"
         offset="1"
         id="stop7426" />
    </linearGradient>
    <linearGradient
       inkscape:collect="always"
       xlink:href="#linearGradient7422"
       id="linearGradient2427"
       gradientUnits="userSpaceOnUse"
       gradientTransform="matrix(0.129048,0,0,0.07807154,-7.8753813,-2.9021226)"
       x1="399.77466"
       y1="1164.6696"
       x2="399.77466"
       y2="549.06134" />
    <linearGradient
       inkscape:collect="always"
       xlink:href="#linearGradient3369"
       id="linearGradient2429"
       gradientUnits="userSpaceOnUse"
       gradientTransform="matrix(1.1666667,0,0,0.4444445,-10.666665,35.555557)"
       x1="11.523571"
       y1="251.25061"
       x2="119.74484"
       y2="-32.830193" />
    <linearGradient
       inkscape:collect="always"
       xlink:href="#linearGradient3310"
       id="linearGradient2444"
       gradientUnits="userSpaceOnUse"
       gradientTransform="matrix(0.85665744,0,0,0.85665744,-6.2176321,23.78685)"
       x1="97.382973"
       y1="20.757973"
       x2="72.265488"
       y2="45.875454" />
    <linearGradient
       inkscape:collect="always"
       xlink:href="#linearGradient2399"
       id="linearGradient3516"
       x1="100.02859"
       y1="20.118034"
       x2="38.063507"
       y2="20.118034"
       gradientUnits="userSpaceOnUse"
       gradientTransform="matrix(-0.9999999,0,0,1.75,190,72.75)" />
    <linearGradient
       id="linearGradient2399">
      <stop
         style="stop-color:#0968ef;stop-opacity:1;"
         offset="0"
         id="stop2401" />
      <stop
         style="stop-color:#aecffc;stop-opacity:1;"
         offset="1"
         id="stop2403" />
    </linearGradient>
    <linearGradient
       inkscape:collect="always"
       xlink:href="#linearGradient2399"
       id="linearGradient4085"
       gradientUnits="userSpaceOnUse"
       gradientTransform="matrix(0.9999999,0,0,1.75,-61.999999,72.75)"
       x1="100.02859"
       y1="20.118034"
       x2="38.063507"
       y2="20.118034" />
  </defs>
  <sodipodi:namedview
     id="base"
     pagecolor="#ffffff"
     bordercolor="#666666"
     borderopacity="1.0"
     inkscape:pageopacity="0.0"
     inkscape:pageshadow="2"
     inkscape:zoom="2.8284273"
     inkscape:cx="64.569032"
     inkscape:cy="25.875714"
     inkscape:document-units="px"
     inkscape:current-layer="layer1"
     height="128px"
     width="128px"
     showborder="true"
     inkscape:showpageshadow="false"
     showgrid="true"
     inkscape:window-width="1366"
     inkscape:window-height="691"
     inkscape:window-x="0"
     inkscape:window-y="26"
     showguides="true"
     inkscape:guide-bbox="true"
     inkscape:window-maximized="1">
    <inkscape:grid
       id="GridFromPre046Settings"
       type="xygrid"
       originx="0"
       originy="0"
       spacingx="4"
       spacingy="4"
       color="#0000ff"
       empcolor="#0000ff"
       opacity="0.2"
       empopacity="0.4"
       empspacing="2" />
  </sodipodi:namedview>
  <metadata
     id="metadata3413">
    <rdf:RDF>
      <cc:Work
         rdf:about="">
        <dc:format>image/svg+xml</dc:format>
        <dc:type
           rdf:resource="http://purl.org/dc/dcmitype/StillImage" />
        <dc:title></dc:title>
      </cc:Work>
    </rdf:RDF>
  </metadata>
  <g
     inkscape:label="Livello 1"
     inkscape:groupmode="layer"
     id="layer1">
    <g
       id="g887"
       transform="rotate(90,72,72)">
      <path
         inkscape:connector-curvature="0"
         sodipodi:nodetypes="ccccccccc"
         id="rect2324"
         d="M 46.59375,44 C 45.010893,44 43.75,45.247097 43.75,46.78125 L 44,81.21875 C 44,82.752904 45.260893,84 46.84375,84 84.947917,84 43.052083,84 81.15625,84 82.73911,84 84,82.752907 84,81.21875 l 0.05,-34.4375 C 84.05,45.247096 82.78911,44 81.20625,44 c -38.204167,0 3.591667,0 -34.6125,0 z"
         style="fill:url(#linearGradient2427);fill-opacity:1;fill-rule:nonzero;stroke:none;stroke-width:2;stroke-linecap:round;stroke-linejoin:round;stroke-miterlimit:4;stroke-dasharray:none;stroke-dashoffset:4;stroke-opacity:1" />
      <path
         sodipodi:nodetypes="cssccsscc"
         inkscape:connector-curvature="0"
         id="rect2326"
         d="M 49.5,48 C 48.669,48 48,48.63728 48,49.4375 v 29.125 C 48,79.362722 48.669,80 49.5,80 c 43.940179,0 -14.940179,0 29,0 0.831,0 1.5,-0.63728 1.5,-1.4375 V 49.4375 C 80,48.637278 79.331,48 78.5,48 c -43.940179,0 14.940179,0 -29,0 z"
         style="fill:url(#linearGradient2429);fill-opacity:1;fill-rule:evenodd;stroke:none;stroke-width:8;stroke-linecap:round;stroke-linejoin:round;stroke-miterlimit:4;stroke-dasharray:none;stroke-opacity:1" />
      <path
         id="path3318"
         d="M 61.245849,48 C 56.445428,53.162207 52.217179,58.719154 49.09375,64.914062 L 73.410156,68 c 0.769637,-5.981009 1.502267,-14.718891 3.945313,-20 h -8.945313 z"
         style="fill:url(#linearGradient2444);fill-opacity:1;fill-rule:evenodd;stroke:none;stroke-width:0.625px;stroke-linecap:butt;stroke-linejoin:miter;stroke-opacity:1"
         inkscape:connector-curvature="0" />
      <path
         style="fill:url(#linearGradient4085);fill-opacity:1;fill-rule:evenodd;stroke:none;stroke-width:2;stroke-linecap:butt;stroke-linejoin:miter;stroke-miterlimit:4;stroke-dasharray:none;stroke-opacity:1"
         d="M 4.000001,107.75 H 47 l -3,5.25 14,-7 -14,-7 3,5.25 H 4.000001 Z"
         id="path4083"
         sodipodi:nodetypes="cccccccc"
         inkscape:connector-curvature="0" />
      <path
         id="path3341"
         d="M 100,112 Z"
         style="fill:none;fill-rule:evenodd;stroke:#000000;stroke-width:1px;stroke-linecap:butt;stroke-linejoin:miter;stroke-opacity:1"
         inkscape:connector-curvature="0" />
      <path
         sodipodi:nodetypes="cccccccc"
         id="path3343"
         d="M 124,107.75 H 83.000001 l 3,5.25 -14,-7 14,-7 -3,5.25 H 124 Z"
         style="fill:url(#linearGradient3516);fill-opacity:1;fill-rule:evenodd;stroke:none;stroke-width:2;stroke-linecap:butt;stroke-linejoin:miter;stroke-miterlimit:4;stroke-dasharray:none;stroke-opacity:1"
         inkscape:connector-curvature="0" />
    </g>
  </g>
</svg>
